X:506
T:Patchwork Polka, The 
C:Joe Buchanan's Scottish Tome - Page 480.0
I:480 0
R:Polka
Z:Carl Allison
L:1/8
M:4/4
K:D
fA BA | F/A/A BA | fd d/e/f/a/ | g2 e2 |
ge e/c/c | cA B/A/A | gA c/A/A | e^e fa |
fA BA | F/A/A BA | fd d/e/f/a/ | g2 e2 |
gB B/g/g | fA A/d/f/a/ | g/e/c/e/ ac | d2 d2 :|
fa ^g/a/f/d/ | Ad BA | fa ^g/a/f/d/ | c2 c2 |
eg f/g/e/c/ | Ac BA | g/A/A a/A/A | e^e fa |
fa ^g/a/f/d/ | Ad BA | fa ^g/a/f/d/ | B2 B2 |
gB B/g/g | fA A/d/f/a/ | g/e/c/e/ ac | d2 d2 :|
[K:A] efg | ac fe | c/e/e fe | Ae fec | d2 d2 |
gf f/e/e | Ge f/e/e | g/f/e/d/ Be | cc efg |
ac fe | c/e/e fe | Ae fec | f2 f2 |
df f/a/g | ac f/e/e g/f/e/d/ Bc |1 F2 F2 :|2 F2  A=e |]
%%newpage
T:Patchwork Polka, The (cont)
[K:D] fA BA | F/A/A BA | fd d/e/f/a/ | g2 e2 |
ge e/c/c | cA B/A/A | gA c/A/A | e^e fa |
fA BA | F/A/A BA | fd d/e/f/a/ | g2 e2 |
gB B/g/g | fA A/d/f/a/ | g/e/c/e/ ac | d2 d2 |]

